dist/img/tel.svg

<svg width="16" height="16" viewBox="0 0 16 16" fill="none" xmlns="http://www.w3.org/2000/svg">
<path d="M11.7251 15.776H11.5171C10.3971 15.728 8.49307 14.928 8.41307 14.896H8.39707C6.79707 14.144 5.32507 13.088 4.01307 11.776C3.69307 11.456 3.37307 11.12 3.03707 10.736C1.75707 9.2 0.941066 7.808 0.429066 6.352C0.285066 5.968 0.189066 5.616 0.109066 5.296C-0.114934 4.352 0.0130657 3.36 0.429066 2.496C0.557066 2.24 0.685066 2.064 0.813066 1.92L1.90107 0.831999C2.23707 0.447999 2.74907 0.223999 3.27707 0.223999H3.32507C3.86907 0.255999 4.31707 0.447999 4.70107 0.831999L6.52507 2.656C7.37307 3.504 7.37307 4.608 6.52507 5.472L5.78907 6.208L9.51707 9.936L10.2851 9.168C10.4291 9.024 10.8931 8.56 11.6931 8.56C12.3171 8.56 12.7811 8.912 13.0691 9.168L13.0851 9.184L13.9971 10.096C14.4611 10.56 14.9091 10.992 14.9251 10.992C15.6451 11.712 15.7091 12.736 15.1011 13.696C14.3491 14.8 12.7811 15.776 11.7251 15.776ZM11.5491 14.896H11.7411C12.4931 14.896 13.7891 14.064 14.3651 13.216C14.7491 12.624 14.7331 12.048 14.3171 11.632C14.3171 11.632 13.8531 11.2 13.3891 10.72L12.4931 9.824C12.3651 9.712 12.0611 9.44 11.7091 9.44C11.2611 9.44 11.0371 9.68 10.9091 9.792L10.1251 10.56C9.96507 10.72 9.74107 10.816 9.50107 10.816C9.26107 10.816 9.05307 10.72 8.87707 10.56L5.16507 6.816C4.82907 6.48 4.82907 5.92 5.16507 5.584L5.90107 4.848C6.39707 4.336 6.39707 3.76 5.90107 3.264L4.09307 1.456C3.88507 1.248 3.62907 1.12 3.30907 1.104H3.29307C3.00507 1.104 2.74907 1.216 2.57307 1.424L2.55707 1.456L1.43707 2.56C1.40507 2.592 1.32507 2.688 1.21307 2.896C0.877066 3.568 0.797066 4.352 0.957066 5.104C1.02107 5.392 1.11707 5.696 1.24507 6.048C1.72507 7.408 2.50907 8.704 3.70907 10.16C4.01307 10.496 4.33307 10.848 4.63707 11.152C5.86907 12.384 7.26107 13.376 8.76507 14.096C9.27707 14.304 10.7491 14.864 11.5491 14.896Z" fill="white"/>
</svg>

<svg fill="none" xmlns="http://www.w3.org/2000/svg" viewBox="0 0 16 16"><path d="M11.725 15.776h-.208c-1.12-.048-3.024-.848-3.104-.88h-.016c-1.6-.752-3.072-1.808-4.384-3.12-.32-.32-.64-.656-.976-1.04C1.757 9.2.941 7.808.43 6.352a9.487 9.487 0 01-.32-1.056 4.226 4.226 0 01.32-2.8c.128-.256.256-.432.384-.576L1.901.832A1.84 1.84 0 013.277.224h.048c.544.032.992.224 1.376.608l1.824 1.824c.848.848.848 1.952 0 2.816l-.736.736 3.728 3.728.768-.768a1.941 1.941 0 011.408-.608c.624 0 1.088.352 1.376.608l.016.016.912.912c.464.464.912.896.928.896.72.72.784 1.744.176 2.704-.752 1.104-2.32 2.08-3.376 2.08zm-.176-.88h.192c.752 0 2.048-.832 2.624-1.68.384-.592.368-1.168-.048-1.584 0 0-.464-.432-.928-.912l-.896-.896c-.128-.112-.432-.384-.784-.384-.448 0-.672.24-.8.352l-.784.768a.883.883 0 01-.624.256.912.912 0 01-.624-.256L5.165 6.816a.879.879 0 010-1.232l.736-.736c.496-.512.496-1.088 0-1.584L4.093 1.456a1.155 1.155 0 00-.784-.352h-.016a.922.922 0 00-.72.32l-.016.032-1.12 1.104a1.538 1.538 0 00-.224.336C.877 3.568.797 4.352.957 5.104c.064.288.16.592.288.944.48 1.36 1.264 2.656 2.464 4.112.304.336.624.688.928.992a15.014 15.014 0 004.128 2.944c.512.208 1.984.768 2.784.8z" fill="#fff"/></svg>
